X:76
T:B076-  Come live with me and be my love
S:(2nd/2)
Q:1/4=120
L:1/4
M:3/4
K:Am
AAA,|(A3/2G/2)c|d2c|B2E|c2C|(c3/2d/2)e|d3/2c/2B|c3|\
eBG|(A3/2B/2)c|d2c|B2A|(c3/2d/2)e|d2A|c^G2|A3|]

